icons/window-maximize.svg

<?xml version="1.0" encoding="UTF-8"?>
<svg xmlns="http://www.w3.org/2000/svg" xmlns:xlink="http://www.w3.org/1999/xlink" width="16pt" height="16pt" viewBox="0 0 16 16" version="1.1">
<g id="surface1">
<path style=" stroke:none;fill-rule:nonzero;fill:#9fabb3;fill-opacity:1;" d="M 3.308594 2.441406 L 12.570312 2.441406 C 12.933594 2.441406 13.230469 2.738281 13.230469 3.101562 C 13.230469 3.46875 12.933594 3.761719 12.570312 3.761719 L 3.308594 3.761719 C 2.941406 3.761719 2.644531 3.46875 2.644531 3.101562 C 2.644531 2.738281 2.941406 2.441406 3.308594 2.441406 Z M 3.308594 2.441406 "/>
<path style=" stroke:none;fill-rule:nonzero;fill:#9fabb3;fill-opacity:1;" d="M 2.976562 2.441406 L 12.898438 2.441406 C 13.265625 2.441406 13.5625 2.730469 13.5625 3.089844 L 13.5625 3.117188 C 13.5625 3.472656 13.265625 3.761719 12.898438 3.761719 L 2.976562 3.761719 C 2.613281 3.761719 2.316406 3.472656 2.316406 3.117188 L 2.316406 3.089844 C 2.316406 2.730469 2.613281 2.441406 2.976562 2.441406 Z M 2.976562 2.441406 "/>
<path style=" stroke:none;fill-rule:nonzero;fill:#9fabb3;fill-opacity:1;" d="M 13.5625 3.101562 L 13.5625 13.023438 C 13.5625 13.390625 13.269531 13.6875 12.914062 13.6875 L 12.886719 13.6875 C 12.527344 13.6875 12.238281 13.390625 12.238281 13.023438 L 12.238281 3.101562 C 12.238281 2.738281 12.527344 2.441406 12.886719 2.441406 L 12.914062 2.441406 C 13.269531 2.441406 13.5625 2.738281 13.5625 3.101562 Z M 13.5625 3.101562 "/>
<path style=" stroke:none;fill-rule:nonzero;fill:#9fabb3;fill-opacity:1;" d="M 3.636719 7.070312 L 3.636719 13.023438 C 3.636719 13.390625 3.347656 13.6875 2.992188 13.6875 L 2.964844 13.6875 C 2.605469 13.6875 2.316406 13.390625 2.316406 13.023438 L 2.316406 7.070312 C 2.316406 6.707031 2.605469 6.410156 2.964844 6.410156 L 2.992188 6.410156 C 3.347656 6.410156 3.636719 6.707031 3.636719 7.070312 Z M 3.636719 7.070312 "/>
<path style=" stroke:none;fill-rule:nonzero;fill:#9fabb3;fill-opacity:1;" d="M 8.929688 13.6875 L 2.976562 13.6875 C 2.613281 13.6875 2.316406 13.394531 2.316406 13.039062 L 2.316406 13.011719 C 2.316406 12.652344 2.613281 12.363281 2.976562 12.363281 L 8.929688 12.363281 C 9.296875 12.363281 9.59375 12.652344 9.59375 13.011719 L 9.59375 13.039062 C 9.59375 13.394531 9.296875 13.6875 8.929688 13.6875 Z M 8.929688 13.6875 "/>
</g>
</svg>

<svg xmlns="http://www.w3.org/2000/svg" width="16pt" height="16pt" viewBox="0 0 16 16"><g fill="#7fa8d6"><path d="M3.309 2.441h9.261a.66.66 0 1 1 0 1.32H3.31a.66.66 0 1 1 0-1.32zm0 0"/><path d="M2.977 2.441h9.921c.368 0 .665.29.665.649v.027a.655.655 0 0 1-.665.645H2.977a.654.654 0 0 1-.66-.645V3.09c0-.36.296-.649.66-.649zm0 0"/><path d="M13.563 3.102v9.921a.658.658 0 0 1-.649.665h-.027a.655.655 0 0 1-.649-.665V3.102c0-.364.29-.66.649-.66h.027c.356 0 .649.296.649.66zm0 0M3.637 7.07v5.953c0 .368-.29.665-.645.665h-.027a.655.655 0 0 1-.649-.665V7.07c0-.363.29-.66.649-.66h.027c.356 0 .645.297.645.66zm0 0"/><path d="M8.93 13.688H2.977a.657.657 0 0 1-.66-.649v-.027c0-.36.296-.649.66-.649H8.93c.367 0 .664.29.664.649v.027a.658.658 0 0 1-.664.649zm0 0"/></g></svg>
